symbols/web/rule_folder/materialsymbolsoutlined/rule_folder_wght100gradN25_24px.svg

<svg xmlns="http://www.w3.org/2000/svg" height="24" width="24"><path d="m7.825 15.025 4-3.975-.475-.475L7.825 14.1l-1.4-1.4-.45.45Zm6.575 0 1.6-1.6 1.6 1.6.45-.425-1.6-1.6 1.6-1.6-.45-.45-1.6 1.6-1.6-1.6-.425.45 1.6 1.6-1.6 1.6ZM4.85 18.6q-.6 0-1.012-.412-.413-.413-.413-1.013V7.9q0-.6.413-1.025.412-.425 1.037-.425h6.2L12 7.4h7.15q.6 0 1.013.412.412.413.412 1.013v8.35q0 .6-.412 1.013-.413.412-1.013.412ZM4.075 7.9v9.25q0 .35.225.575.225.225.575.225H19.15q.35 0 .575-.225.225-.225.225-.575V8.825q0-.35-.225-.575-.225-.225-.575-.225h-7.4l-.925-.925h-5.95q-.35 0-.575.225-.225.225-.225.575Zm0 0V7.1 17.95 17.15Z"/></svg>

<svg xmlns="http://www.w3.org/2000/svg" height="24" width="24"><path d="M7.825 15.025 11.825 11.05 11.35 10.575 7.825 14.1 6.425 12.7 5.975 13.15ZM14.4 15.025 16 13.425 17.6 15.025 18.05 14.6 16.45 13 18.05 11.4 17.6 10.95 16 12.55 14.4 10.95 13.975 11.4 15.575 13 13.975 14.6ZM4.85 18.6Q4.25 18.6 3.838 18.188Q3.425 17.775 3.425 17.175V7.9Q3.425 7.3 3.838 6.875Q4.25 6.45 4.875 6.45H11.075L12 7.4H19.15Q19.75 7.4 20.163 7.812Q20.575 8.225 20.575 8.825V17.175Q20.575 17.775 20.163 18.188Q19.75 18.6 19.15 18.6ZM4.075 7.9V17.15Q4.075 17.5 4.3 17.725Q4.525 17.95 4.875 17.95H19.15Q19.5 17.95 19.725 17.725Q19.95 17.5 19.95 17.15V8.825Q19.95 8.475 19.725 8.25Q19.5 8.025 19.15 8.025H11.75L10.825 7.1H4.875Q4.525 7.1 4.3 7.325Q4.075 7.55 4.075 7.9ZM4.075 7.9Q4.075 7.55 4.075 7.325Q4.075 7.1 4.075 7.1V8.025Q4.075 8.025 4.075 8.25Q4.075 8.475 4.075 8.825V17.15Q4.075 17.5 4.075 17.725Q4.075 17.95 4.075 17.95Q4.075 17.95 4.075 17.725Q4.075 17.5 4.075 17.15Z"/></svg>
